X:16
T:Vals
R:vals
Z:id:hn-vals-16
M:3/4
L:1/8
K:Gdor
DG^F|D2 D^F AF|G3 ABA|D^F FG AF|G3:|
|:DGB|Bd dc ce|c3 ABA|1 ^FG AG F2|D3:|2 DG BA ^F2|G3||

